X:1
T:The Sea Monster  "Arr GMB 9/96"
M:C|
L:1/8
Q:80
C:(James Elliott?)
S:Hornpipe
K:HP
[| {g}e/2A/2{g}c/2{d}A/2{g}e/2A/2{g}c/2{d}A/2 | \
{g}d/2f/2a/2f/2{g}e{g}c/2d/2 | \
{g}e/2A/2{g}c/2{d}A/2{g}c/2e/2{g}c/2{d}A/2 |
{g}B/2c/2{g}d/2c/2{g}B/2{d}G/2{g}B/2d/2 | \
{g}e/2A/2{g}c/2{d}A/2{g}e/2A/2{g}c/2{d}A/2 | \
{g}d/2f/2a/2f/2{g}e{g}c/2d/2 |
{g}e/2a/2{g}a/2g/2{a}e/2g/2{a}e/2d/2 | \
{g}B{e}A{GAG}A|1 {g}c/2d/2|2 {g}f/2g/2:| [ | \
a/2A/2{g}e/2A/2a/2g/2{a}f/2a/2 |
e/2A/2{g}d/2f/2{g}e{g}c/2B/2 | \
{g}A/2a/2{g}a/2B/2a/2{g}a/2c/2a/2 | \
B/2a/2{g}a/2d/2a/2{g}a/2B/2a/2 |
{g}a/2A/2{g}e/2A/2a/2g/2{a}f/2a/2 | \
e/2A/2{g}d/2f/2{g}e{g}c/2d/2 | \
{g}e/2a/2{g}a/2g/2{a}e/2g/2{a}e/2d/2 |
{g}B{e}A{GAG}A|1 {g}f/2g/2|2 {g}e/2d/2:| [ | \
{g}c/2e/2a/2g/2{a}f/2d/2{g}e/2c/2 | \
{g}c/2a/2B/2a/2A/2a/2c |
{g}e/2A/2{g}c/2d/2{g}e/2A/2{g}c/2{d}A/2 | \
{g}G/2g/2{f}g/2B/2g/2{f}g/2d/2g/2|1
{a}c/2e/2a/2g/2{a}f/2d/2{g}e/2c/2 |
{g}A/2{d}c/2a/2f/2{g}e/2A/2{d}c | \
{g}e/2a/2{g}a/2g/2{a}e/2g/2{a}e/2d/2 | \
{g}B{e}A{GAG}A{g}e/2d/2:|2
{a}c/2e/2a/2g/2{a}f/2d/2{g}e/2c/2 | \
{g}f/2a/2{g}a/2e/2a/2{g}a/2d/2a/2 | \
c/2a/2{g}a/2g/2{a}e/2g/2{a}e/2d/2 |
{g}B{e}A{GAG}A|]
